!!! OTL: Berkowitz597
!!! Chapter: 1
!!! Section: V
!!! Page: 151
!!! Mode: 
!!! Encoder: AR
**kern
*staff1
=1-
!!pagebreak:original
*clefF4
*k[]
*C:
*M3/4
4B\
4B\
4B\
=2
4d\
4B-\
4r
=3
4c#\
4A\
4r
=4
4E-\
4G\
4r
=5
4.D\
8F\
4A-\
=6
4d-\
4B-\
4dn\
=7
4c#\
4A\
4F\
=8
2F#\
4E\
=9
!!linebreak:original
4D\
4D\
4D\
=10
4G#\
4F#\
4r
=11
4c\
4A-\
4r
=12
4E\
4B-\
4r
=13
4Bn\
4.G\
8E-\
=14
4A\
4F\
4D-\
=15
4C/
4.G-\
8F\
=16
2.D\
==
*-
